X: 6
T: Wallop The Spot
R: jig
M: 6/8
L: 1/8
K: Dmaj
|: F3 DFA | BAF d2 A | F3 DFA | BAF AFE |
F3 DFA | BAF d2 e | g/f/ed edB | BAF AFE :||
|: Bcd eAA | g/f/ed eAA | Bcd eAA | BAF AFE |
Bcd eAA | fAA efg | age edB | BAF AFE :||
|: DFA dB/c/d | edc d2A | DFA d2 A | BAF AFE |
DFA dB/c/d | edc d2 e | g/f/ed edB | BAF AFE :||


Tune 818	Setting 13969

